ix/devices_broken.svg

<svg viewBox="0 0 24 24" fill="none" xmlns="http://www.w3.org/2000/svg" height="1em" width="1em">
  <path d="M15.7194 9.69002C13.6694 7.63002 10.3294 7.63002 8.27937 9.69002C6.21938 11.75 6.21938 15.08 8.27937 17.13C10.3394 19.19 13.6694 19.19 15.7194 17.13C16.7494 16.1 17.2594 14.76 17.2594 13.41" stroke="#292D32" stroke-width="1.5093" stroke-linecap="round" stroke-linejoin="round"/>
  <path d="M12.0002 13.4099L10.4102 14.9999" stroke="#292D32" stroke-width="1.5093" stroke-linecap="round" stroke-linejoin="round"/>
  <path d="M19.0708 6.33997C19.2208 6.48997 19.2208 6.73997 19.0708 6.89997C18.9208 7.04997 18.6708 7.04997 18.5108 6.89997C18.3508 6.74997 18.3608 6.49997 18.5108 6.33997C18.6608 6.17997 18.9208 6.17997 19.0708 6.33997Z" stroke="#292D32" stroke-miterlimit="10"/>
  <path d="M19.0708 6.33997C19.2208 6.48997 19.2208 6.73997 19.0708 6.89997C18.9208 7.04997 18.6708 7.04997 18.5108 6.89997C18.3508 6.74997 18.3608 6.49997 18.5108 6.33997C18.6608 6.17997 18.9208 6.17997 19.0708 6.33997Z" stroke="#292D32" stroke-width="1.5" stroke-linecap="round" stroke-linejoin="round"/>
  <path d="M5.49086 19.92C5.64086 20.07 5.64086 20.32 5.49086 20.48C5.34086 20.64 5.09086 20.63 4.93086 20.48C4.78086 20.33 4.78086 20.08 4.93086 19.92C5.08086 19.76 5.34086 19.76 5.49086 19.92Z" stroke="#292D32" stroke-miterlimit="10"/>
  <path d="M5.49086 19.92C5.64086 20.07 5.64086 20.32 5.49086 20.48C5.34086 20.64 5.09086 20.63 4.93086 20.48C4.78086 20.33 4.78086 20.08 4.93086 19.92C5.08086 19.76 5.34086 19.76 5.49086 19.92Z" stroke="#292D32" stroke-width="1.5" stroke-linecap="round" stroke-linejoin="round"/>
  <path d="M21.8794 13.13C22.0294 13.28 22.0294 13.53 21.8794 13.69C21.7294 13.84 21.4794 13.84 21.3194 13.69C21.1594 13.54 21.1694 13.29 21.3194 13.13C21.4694 12.97 21.7294 12.97 21.8794 13.13Z" stroke="#292D32" stroke-miterlimit="10"/>
  <path d="M21.8794 13.13C22.0294 13.28 22.0294 13.53 21.8794 13.69C21.7294 13.84 21.4794 13.84 21.3194 13.69C21.1594 13.54 21.1694 13.29 21.3194 13.13C21.4694 12.97 21.7294 12.97 21.8794 13.13Z" stroke="#292D32" stroke-width="1.5" stroke-linecap="round" stroke-linejoin="round"/>
  <path d="M2.67057 13.13C2.82057 13.28 2.82057 13.53 2.67057 13.69C2.52057 13.85 2.27055 13.84 2.11055 13.69C1.96055 13.54 1.96055 13.29 2.11055 13.13C2.27055 12.97 2.52057 12.97 2.67057 13.13Z" stroke="#292D32" stroke-miterlimit="10"/>
  <path d="M2.67057 13.13C2.82057 13.28 2.82057 13.53 2.67057 13.69C2.52057 13.85 2.27055 13.84 2.11055 13.69C1.96055 13.54 1.96055 13.29 2.11055 13.13C2.27055 12.97 2.52057 12.97 2.67057 13.13Z" stroke="#292D32" stroke-width="1.5" stroke-linecap="round" stroke-linejoin="round"/>
  <path d="M19.0708 19.92C19.2208 20.07 19.2208 20.32 19.0708 20.48C18.9208 20.63 18.6708 20.63 18.5108 20.48C18.3508 20.33 18.3608 20.08 18.5108 19.92C18.6708 19.76 18.9208 19.76 19.0708 19.92Z" stroke="#292D32" stroke-miterlimit="10"/>
  <path d="M19.0708 19.92C19.2208 20.07 19.2208 20.32 19.0708 20.48C18.9208 20.63 18.6708 20.63 18.5108 20.48C18.3508 20.33 18.3608 20.08 18.5108 19.92C18.6708 19.76 18.9208 19.76 19.0708 19.92Z" stroke="#292D32" stroke-width="1.5" stroke-linecap="round" stroke-linejoin="round"/>
  <path d="M5.49086 6.33997C5.64086 6.48997 5.64086 6.73997 5.49086 6.89997C5.34086 7.05997 5.09086 7.04997 4.93086 6.89997C4.78086 6.74997 4.78086 6.49997 4.93086 6.33997C5.08086 6.17997 5.34086 6.17997 5.49086 6.33997Z" stroke="#292D32" stroke-miterlimit="10"/>
  <path d="M5.49086 6.33997C5.64086 6.48997 5.64086 6.73997 5.49086 6.89997C5.34086 7.05997 5.09086 7.04997 4.93086 6.89997C4.78086 6.74997 4.78086 6.49997 4.93086 6.33997C5.08086 6.17997 5.34086 6.17997 5.49086 6.33997Z" stroke="#292D32" stroke-width="1.5" stroke-linecap="round" stroke-linejoin="round"/>
  <path d="M12.2798 3.52009C12.4298 3.67009 12.4298 3.92009 12.2798 4.08009C12.1298 4.24009 11.8798 4.23009 11.7198 4.08009C11.5598 3.93009 11.5698 3.68009 11.7198 3.52009C11.8698 3.36009 12.1298 3.37009 12.2798 3.52009Z" stroke="#292D32" stroke-miterlimit="10"/>
  <path d="M12.2798 3.52009C12.4298 3.67009 12.4298 3.92009 12.2798 4.08009C12.1298 4.24009 11.8798 4.23009 11.7198 4.08009C11.5598 3.93009 11.5698 3.68009 11.7198 3.52009C11.8698 3.36009 12.1298 3.37009 12.2798 3.52009Z" stroke="#292D32" stroke-width="1.5" stroke-linecap="round" stroke-linejoin="round"/>
</svg>

<svg viewBox="0 0 24 24" fill="none" xmlns="http://www.w3.org/2000/svg" height="1em" width="1em">
  <path d="M15.72 9.69a5.251 5.251 0 0 0-7.44 0 5.25 5.25 0 0 0 0 7.44 5.251 5.251 0 0 0 7.44 0 5.23 5.23 0 0 0 1.54-3.72m-5.26 0L10.41 15" stroke="#292D32" stroke-width="1.509" stroke-linecap="round" stroke-linejoin="round"/>
  <path d="M19.07 6.34c.15.15.15.4 0 .56-.15.15-.4.15-.56 0-.16-.15-.15-.4 0-.56.15-.16.41-.16.56 0Z" stroke="#292D32" stroke-miterlimit="10"/>
  <path d="M19.07 6.34c.15.15.15.4 0 .56-.15.15-.4.15-.56 0-.16-.15-.15-.4 0-.56.15-.16.41-.16.56 0Z" stroke="#292D32" stroke-width="1.5" stroke-linecap="round" stroke-linejoin="round"/>
  <path d="M5.49 19.92c.15.15.15.4 0 .56-.15.16-.4.15-.56 0a.405.405 0 0 1 0-.56c.15-.16.41-.16.56 0Z" stroke="#292D32" stroke-miterlimit="10"/>
  <path d="M5.49 19.92c.15.15.15.4 0 .56-.15.16-.4.15-.56 0a.405.405 0 0 1 0-.56c.15-.16.41-.16.56 0Z" stroke="#292D32" stroke-width="1.5" stroke-linecap="round" stroke-linejoin="round"/>
  <path d="M21.88 13.13c.15.15.15.4 0 .56-.15.15-.4.15-.56 0-.16-.15-.15-.4 0-.56.15-.16.41-.16.56 0Z" stroke="#292D32" stroke-miterlimit="10"/>
  <path d="M21.88 13.13c.15.15.15.4 0 .56-.15.15-.4.15-.56 0-.16-.15-.15-.4 0-.56.15-.16.41-.16.56 0Z" stroke="#292D32" stroke-width="1.5" stroke-linecap="round" stroke-linejoin="round"/>
  <path d="M2.67 13.13c.15.15.15.4 0 .56-.15.16-.4.15-.56 0a.405.405 0 0 1 0-.56c.16-.16.41-.16.56 0Z" stroke="#292D32" stroke-miterlimit="10"/>
  <path d="M2.67 13.13c.15.15.15.4 0 .56-.15.16-.4.15-.56 0a.405.405 0 0 1 0-.56c.16-.16.41-.16.56 0Z" stroke="#292D32" stroke-width="1.5" stroke-linecap="round" stroke-linejoin="round"/>
  <path d="M19.07 19.92c.15.15.15.4 0 .56-.15.15-.4.15-.56 0-.16-.15-.15-.4 0-.56.16-.16.41-.16.56 0Z" stroke="#292D32" stroke-miterlimit="10"/>
  <path d="M19.07 19.92c.15.15.15.4 0 .56-.15.15-.4.15-.56 0-.16-.15-.15-.4 0-.56.16-.16.41-.16.56 0Z" stroke="#292D32" stroke-width="1.5" stroke-linecap="round" stroke-linejoin="round"/>
  <path d="M5.49 6.34c.15.15.15.4 0 .56-.15.16-.4.15-.56 0a.405.405 0 0 1 0-.56c.15-.16.41-.16.56 0Z" stroke="#292D32" stroke-miterlimit="10"/>
  <path d="M5.49 6.34c.15.15.15.4 0 .56-.15.16-.4.15-.56 0a.405.405 0 0 1 0-.56c.15-.16.41-.16.56 0Z" stroke="#292D32" stroke-width="1.5" stroke-linecap="round" stroke-linejoin="round"/>
  <path d="M12.28 3.52c.15.15.15.4 0 .56-.15.16-.4.15-.56 0-.16-.15-.15-.4 0-.56.15-.16.41-.15.56 0Z" stroke="#292D32" stroke-miterlimit="10"/>
  <path d="M12.28 3.52c.15.15.15.4 0 .56-.15.16-.4.15-.56 0-.16-.15-.15-.4 0-.56.15-.16.41-.15.56 0Z" stroke="#292D32" stroke-width="1.5" stroke-linecap="round" stroke-linejoin="round"/>
</svg>
